X: 25643
T: Martin O'Connor's
R: mazurka
M: 3/4
K: Bminor
d>c|:B>F F>B d>B|c>A A>c B>A|B>G G>B d>B|A>F F2 d>c|
B2 B>c (3dcB|e>^d e>g f>e|d>c (3Bcd c>A|1 B3 c d>c:|2 B3 c d>e||
|:f2 (3fef g>e|f2 (3fef g>e|d2 d>f e>c|d2 B2 (3ABc|
d>A F>G A>F|G2 E2 (3efg|f>e d>f c>f|1 B3 c d>e:|2 B3 c d>c||

